dist/svgs/crypto-icons/icons/mtr.svg

<?xml version="1.0" encoding="UTF-8" standalone="yes"?>
<svg xmlns="http://www.w3.org/2000/svg" xmlns:xlink="http://www.w3.org/1999/xlink" width="512px" height="512px" viewBox="0 0 384 384" version="1.1">
  <g id="surface1">
    <path style=" stroke:none;fill-rule:nonzero;fill:rgb(0%,0%,0%);fill-opacity:1;" d="M 302.390625 54.328125 L 306.824219 71.679688 L 0.0390625 205.5 L 3.511719 216.683594 L 258.621094 138.117188 L 258.621094 329.296875 L 297.375 329.296875 L 297.375 126.179688 L 317.816406 119.882812 L 323.023438 138.398438 L 384.148438 64.738281 Z M 302.390625 54.328125 "/>
    <path style=" stroke:none;fill-rule:nonzero;fill:rgb(0%,0%,0%);fill-opacity:1;" d="M 60.207031 329.296875 L 98.960938 329.296875 L 98.960938 202.601562 L 60.207031 214.539062 Z M 126.339844 329.296875 L 165.097656 329.296875 L 165.097656 182.167969 L 126.339844 194.109375 Z M 192.480469 329.296875 L 231.238281 329.296875 L 231.238281 161.847656 L 192.480469 173.785156 Z M 192.480469 329.296875 "/>
  </g>
</svg>

<svg xmlns="http://www.w3.org/2000/svg" viewBox="0 0 384 384"><path d="M302.39 54.328l4.434 17.352L.04 205.5l3.473 11.184 255.11-78.567v191.18h38.753V126.18l20.441-6.297 5.207 18.515 61.125-73.66zm0 0"/><path d="M60.207 329.297h38.754V202.602l-38.754 11.937zm66.133 0h38.758V182.168l-38.758 11.941zm66.14 0h38.758v-167.45l-38.758 11.938zm0 0"/></svg>
